priv/static/images/pipe-top.svg

<svg width="100%" height="100%" viewBox="0 0 349 1920" version="1.1"
    xmlns="http://www.w3.org/2000/svg" xmlns:xlink="http://www.w3.org/1999/xlink"
    xml:space="preserve" xmlns:serif="http://www.serif.com/"
    style="fill-rule:evenodd;clip-rule:evenodd;stroke-linejoin:round;stroke-miterlimit:2;">
    <path d="M348.017,1920l-348.017,0l0,-173.531l36.334,0l0,-1746.47l275.349,0l-0,1746.47l36.334,0l0,173.531Z" style="fill:#a95efb;"/>
</svg>

<?xml version="1.0" encoding="UTF-8" standalone="no"?>
<!DOCTYPE svg PUBLIC "-//W3C//DTD SVG 1.1//EN" "http://www.w3.org/Graphics/SVG/1.1/DTD/svg11.dtd">
<svg width="100%" height="100%" viewBox="0 0 349 1920" version="1.1" xmlns="http://www.w3.org/2000/svg" xmlns:xlink="http://www.w3.org/1999/xlink" xml:space="preserve" xmlns:serif="http://www.serif.com/" style="fill-rule:evenodd;clip-rule:evenodd;stroke-linejoin:round;stroke-miterlimit:2;">
    <g transform="matrix(1.00282,0,0,1,0,0)">
        <path d="M348.017,1920L0,1920L0,1746.47L36.334,1746.47L36.334,-0.001L311.683,-0.001L311.683,1746.47L348.017,1746.47L348.017,1920Z" style="fill:url(#_Linear1);"/>
    </g>
    <g transform="matrix(0.69081,0,0,0.16286,108.586,1434.1)">
        <path d="M348.017,1763.08L348.017,1920C348.017,1920 179.616,1952.7 95.415,1952.7C11.214,1952.7 -157.187,1920 -157.187,1920L-157.187,1763.08C-157.187,1763.08 11.214,1778.34 95.415,1778.34C179.616,1778.34 348.017,1763.08 348.017,1763.08Z" style="fill:url(#_Linear2);"/>
    </g>
    <defs>
        <linearGradient id="_Linear1" x1="0" y1="0" x2="1" y2="0" gradientUnits="userSpaceOnUse" gradientTransform="matrix(348.017,0,0,1920,0,960)"><stop offset="0" style="stop-color:rgb(165,88,255);stop-opacity:1"/><stop offset="0.31" style="stop-color:rgb(229,207,254);stop-opacity:1"/><stop offset="1" style="stop-color:rgb(169,94,251);stop-opacity:1"/></linearGradient>
        <linearGradient id="_Linear2" x1="0" y1="0" x2="1" y2="0" gradientUnits="userSpaceOnUse" gradientTransform="matrix(-2.4487e-14,1500.87,-4.79843,-7.6058e-15,-157.187,1651.56)"><stop offset="0" style="stop-color:rgb(190,135,255);stop-opacity:1"/><stop offset="0.33" style="stop-color:rgb(172,99,252);stop-opacity:1"/><stop offset="1" style="stop-color:rgb(169,94,251);stop-opacity:1"/></linearGradient>
    </defs>
</svg>
